X: 17347
T: High Caul Cap
R: polka
M: 2/4
K: Gmajor
G>A BB|c/B/A/G/ B2|BA AG/A/|BA AB|
G>A BB|c/B/A/G/ B>A|GE ED|1 GE ED:|2 GE Ed||
|:eg dB|c/B/A/G/ B2|BA AG/A/|BA Ad|
eg dB|c/B/A/G/ B>A|GE ED|1 GE Ed:|2 GE ED||

